X: 55
T:Union Reel
M:C
L:1/8
D:De Dannan : Star spangled Molly
K:A
e2 (3cBA eAcA| eAcA Bcdf| e2 (3cBA eAcA|Bcdc BAFA|
e2 (3cBA eAcA| eAcA Bcdf| ef ec dcBA| FABc d4 :|
|:df ~f2 dfef| df ~f2 afef| df f{g}f e~f3| dcBA FABc|
df ~f2 dfef| df ~f2 afef| df f{g}f e ~f3| dcBA FAdf:|
